X:1
T:Christine Leroy
M:3/4
L:1/4
K:G
G/2-A/2| B B B| B A G| e d2| z2 G/2A/2| B B B| B d d| A3| z2 d/2c/2|\
 B B B| B A G| e d2| z2 G/2A/2| B c3/2 B/2| A A3/2 F/2| G2||
